src/img/file.svg

<svg width="100" height="100" viewBox="0 0 100 100" fill="none" xmlns="http://www.w3.org/2000/svg">
<circle cx="50" cy="50" r="47.5" fill="#3E9CDC" stroke="#286690" stroke-width="5"/>
<path d="M45.9932 52.3724V51.0867C45.9932 50.7251 46.2745 50.4439 46.6361 50.4439H60.7789C61.1405 50.4439 61.4218 50.7251 61.4218 51.0867V52.3724C61.4218 52.734 61.1405 53.0153 60.7789 53.0153H46.6361C46.2745 53.0153 45.9932 52.734 45.9932 52.3724Z" fill="white"/>
<path d="M46.6361 55.5867H60.7789C61.1405 55.5867 61.4218 55.868 61.4218 56.2296V57.5153C61.4218 57.8769 61.1405 58.1581 60.7789 58.1581H46.6361C46.2745 58.1581 45.9932 57.8769 45.9932 57.5153V56.2296C45.9932 55.868 46.2745 55.5867 46.6361 55.5867Z" fill="white"/>
<path d="M46.6361 60.7296H60.7789C61.1405 60.7296 61.4218 61.0108 61.4218 61.3724V62.6581C61.4218 63.0198 61.1405 63.301 60.7789 63.301H46.6361C46.2745 63.301 45.9932 63.0198 45.9932 62.6581V61.3724C45.9932 61.0108 46.2745 60.7296 46.6361 60.7296Z" fill="white"/>
<path fill-rule="evenodd" clip-rule="evenodd" d="M38.2789 44.3148C34.1837 44.3148 30.8639 40.995 30.8639 36.8998C30.8639 32.8046 34.1837 29.4848 38.2789 29.4848C41.7229 29.4848 44.6185 31.8328 45.4523 35.0153H58.2075C59.2722 35.0153 60.7588 35.6381 61.5021 36.3814L67.77 42.6492C68.5133 43.3925 69.1361 44.8791 69.1361 45.9439V69.0867C69.1361 70.1515 68.2722 71.0153 67.2075 71.0153H40.2075C39.1428 71.0153 38.2789 70.1515 38.2789 69.0867L38.2789 44.3148ZM40.8504 43.8568C43.4729 42.8871 45.397 40.477 45.6625 37.5867H56.2789V45.9439C56.2789 47.0086 57.1428 47.8724 58.2075 47.8724H66.5646V68.4439H40.8504V43.8568ZM59.674 38.1894C59.5334 38.0488 59.1919 37.868 58.8504 37.7474V45.301H66.4039C66.2834 44.9595 66.1026 44.618 65.962 44.4773L59.674 38.1894ZM39.2789 37.8998H43.2789V35.8998H39.2789V31.8998H37.2789V35.8998H33.2789V37.8998H37.2789V41.8998H39.2789V37.8998Z" fill="white"/>
</svg>

<svg width="100" height="100" fill="none" xmlns="http://www.w3.org/2000/svg"><circle cx="50" cy="50" r="47.5" fill="#3E9CDC" stroke="#286690" stroke-width="5"/><path d="M45.993 52.372v-1.285c0-.362.282-.643.643-.643H60.78c.361 0 .643.281.643.643v1.285a.635.635 0 01-.643.643H46.636a.635.635 0 01-.643-.643zM46.636 55.587H60.78c.361 0 .643.281.643.643v1.285a.635.635 0 01-.643.643H46.636a.635.635 0 01-.643-.643V56.23c0-.362.282-.643.643-.643zM46.636 60.73H60.78c.361 0 .643.28.643.642v1.286a.635.635 0 01-.643.643H46.636a.635.635 0 01-.643-.643v-1.286c0-.361.282-.642.643-.642z" fill="#fff"/><path fill-rule="evenodd" clip-rule="evenodd" d="M38.279 44.315a7.415 7.415 0 117.173-9.3h12.756c1.064 0 2.55.623 3.294 1.366l6.268 6.268c.743.743 1.366 2.23 1.366 3.295v23.143a1.93 1.93 0 01-1.928 1.928h-27a1.93 1.93 0 01-1.93-1.928V44.315zm2.571-.458a7.421 7.421 0 004.813-6.27h10.616v8.357a1.93 1.93 0 001.928 1.928h8.358v20.572H40.85V43.857zm18.824-5.668c-.14-.14-.482-.321-.824-.442v7.554h7.554c-.12-.342-.301-.683-.442-.824l-6.288-6.288zm-20.395-.29h4v-2h-4v-4h-2v4h-4v2h4v4h2v-4z" fill="#fff"/></svg>
